X: 11001
T: COTILLION No. 16. tune 1
C:
%R: jig
B: Elias Howe "The Musician's Companion" Part 1 1842 p.100 #1
S: http://imslp.org/wiki/The_Musician's_Companion_(Howe,_Elias)
Z: 2015 John Chambers <jc:trillian.mit.edu>
M: 6/8
L: 1/8
K: G
% - - - - - - - - - - - - - - - - - - - - - - - - -
D^CD |\
G2D B2G | A2D d2c | (BA)G {A}GFG | (AF)D {E}D^CD |\
G2D B2G | A2D d2c | (BA)G {B}AGA | G3 H|]
!f!{e}d^cd |\
=cAf afd | gdB bgd | afd d'c'a | b2g {e}d^cd |\
=cAf afd | gdB bgd | afd [dd'][cc'][Aa] | "^D.C."[G3g3] |]
z2!f!B |\
efg fga | gfg e2b | c'ba gfe | (e3 ^d2)B |\
efg fga | gab abc' | bag (fb)^d | "^D.C."e3 |]
% - - - - - - - - - - Dance description - - - - - - - - - -
%%begintext align
%% First 4 chassa across and back,
%% forward and back 4,
%% balance partners and turn,
%% ladies chain,
%% promenade 4,
%% sides the same.
%%endtext
%- - - - - - - - - - - - - - - - - - - - - - - - -
%%sep 1 1 300
